melody-of-light/img/icons/icomoon/text-link.svg

<svg width="16" height="17" viewBox="0 0 16 17" fill="none" xmlns="http://www.w3.org/2000/svg">
<path fill-rule="evenodd" clip-rule="evenodd" d="M8.62623 13.8737C8.2357 13.4832 8.2357 12.85 8.62623 12.4595L11.5858 9.49996L2 9.49996C1.44771 9.49996 1 9.05224 1 8.49996C0.999999 7.94768 1.44771 7.49996 2 7.49996L11.5858 7.49996L8.62623 4.5404C8.2357 4.14988 8.2357 3.51671 8.62623 3.12619C9.01675 2.73566 9.64991 2.73566 10.0404 3.12619L14.7071 7.79285C15.0976 8.18338 15.0976 8.81654 14.7071 9.20707L10.0404 13.8737C9.64992 14.2643 9.01675 14.2643 8.62623 13.8737Z" fill="#EC863D"/>
</svg>

<svg width="16" height="17" fill="none" xmlns="http://www.w3.org/2000/svg"><path fill-rule="evenodd" clip-rule="evenodd" d="M8.626 13.874a1 1 0 010-1.415l2.96-2.959H2a1 1 0 110-2h9.586l-2.96-2.96a1 1 0 011.414-1.414l4.667 4.667a1 1 0 010 1.414l-4.667 4.667a1 1 0 01-1.414 0z" fill="#EC863D"/></svg>
